X:4
T:A Song For Helen
M:3/4
L:1/4
N: Written to honor the life of Helen Martin who died December 2010
C:© Paul Gitlitz, December 2010
K:G
"G"dBG|"D"AGA|"G"{Bc}B3-|B3|!
"G"dBG|"D"A>GA|"Bm"B3-|B3|!
"G"dBG|"Am"AGA|"Bm"B>AG|"C"E3|!
"G"dBG|"D"A>GF|"G"G3-|1G3:|2G>AB|!
|:"C"cBA|"G"{Bc}BAG|"D"A>GA|"Bm"BAB|!
"C"cBA|"G"BAG|"D"A3|D3|!
"C"cBA|"G"BAG|"D"d>ef|"Em"g>fe|!
"G"dBG|"D"A>GF|"G"G3-|1G>AB:|2G3|]
